packages/assets/static/images/icons/gavel.svg

<svg width="24" height="24" viewBox="0 0 24 24" xmlns="http://www.w3.org/2000/svg" fill="currentColor" aria-hidden="true"> <path d="M22.3281 11.4244L20.8281 9.92442C20.55 9.64664 20.1917 9.46324 19.8038 9.40016C19.4159 9.33707 19.0179 9.39749 18.6662 9.57286L14.4287 5.33536C14.6042 4.98372 14.6647 4.58584 14.6018 4.19791C14.5389 3.80998 14.3557 3.45163 14.0781 3.17349L12.5781 1.67349C12.2265 1.32198 11.7496 1.12451 11.2524 1.12451C10.7553 1.12451 10.2784 1.32198 9.92682 1.67349L3.92681 7.67349C3.57531 8.0251 3.37784 8.50193 3.37784 8.99911C3.37784 9.49629 3.57531 9.97312 3.92681 10.3247L5.42681 11.8247C5.70398 12.1019 6.06105 12.2853 6.44782 12.349C6.8346 12.4127 7.23162 12.3536 7.58307 12.18L2.00494 17.7544C1.44227 18.3171 1.12616 19.0802 1.12616 19.876C1.12616 20.6717 1.44227 21.4349 2.00494 21.9975C2.56761 22.5602 3.33076 22.8763 4.1265 22.8763C4.92224 22.8763 5.68539 22.5602 6.24806 21.9975L11.8149 16.426C11.6429 16.777 11.5848 17.1729 11.6488 17.5585C11.7129 17.9441 11.8958 18.3001 12.1721 18.5766L13.6721 20.0766C13.8462 20.2508 14.053 20.389 14.2805 20.4833C14.508 20.5775 14.7519 20.6261 14.9982 20.6261C15.2445 20.6261 15.4884 20.5775 15.7159 20.4833C15.9435 20.389 16.1502 20.2508 16.3243 20.0766L22.3243 14.0766C22.4985 13.9025 22.6367 13.6958 22.731 13.4682C22.8252 13.2407 22.8738 12.9968 22.8738 12.7505C22.8738 12.5042 22.8252 12.2603 22.731 12.0328C22.6367 11.8053 22.4985 11.5985 22.3243 11.4244H22.3281ZM6.75244 9.96942L5.78119 9.00005L11.2524 3.52974L12.2218 4.50005L6.75244 9.96942ZM4.65619 20.4066C4.51546 20.5472 4.32464 20.6262 4.1257 20.6261C3.92677 20.626 3.73601 20.5469 3.59541 20.4061C3.4548 20.2654 3.37586 20.0746 3.37595 19.8757C3.37604 19.6767 3.45515 19.486 3.59588 19.3454L9.17588 13.7654L10.2362 14.8266L4.65619 20.4066ZM13.3468 14.7544L9.24806 10.6557L12.9043 6.99942L17.0031 11.0982L13.3468 14.7544ZM15.0015 18.2232L14.0321 17.25L19.5024 11.7807L20.4718 12.75L15.0015 18.2232Z"/> </svg>

<svg viewBox="0 0 24 24" xmlns="http://www.w3.org/2000/svg" aria-hidden="true" fill="currentColor"><path d="m22.328 11.424-1.5-1.5a1.875 1.875 0 0 0-2.162-.351L14.43 5.335a1.875 1.875 0 0 0-.35-2.162l-1.5-1.5a1.875 1.875 0 0 0-2.652 0l-6 6a1.875 1.875 0 0 0 0 2.652l1.5 1.5a1.875 1.875 0 0 0 2.156.355l-5.578 5.574a3 3 0 0 0 4.243 4.243l5.567-5.571a1.88 1.88 0 0 0 .357 2.15l1.5 1.5a1.876 1.876 0 0 0 2.652 0l6-6a1.875 1.875 0 0 0 0-2.652zM6.752 9.97 5.782 9l5.47-5.47.97.97zM4.656 20.407a.75.75 0 1 1-1.06-1.062l5.58-5.58 1.06 1.062zm8.69-5.653-4.098-4.098 3.656-3.657 4.1 4.1zm1.656 3.47-.97-.974 5.47-5.47.97.97z"/></svg>
